X:1
T:RVW2/1/205 [Untitled Tune]
L:1/8
Q:1/4=120
M:6/8
I:linebreak $
K:C
V:1 treble 
V:1
 G | F2 E C2 C | E2 F G2 G | F2 E C2 C | C3 |: z2 F | G2 G G2 _B | _B2 A G2 E |$ G2 G Add | G3 :| %10
 d2 G | G2 F C2 C | E2 G A2 A | F2 E C2 C | C4- C |] %15
